X:1
T:James Gibb editions
T:Herzliebstes bild - Hofhaimer
T:#
%%score [ 1 2 3 ]
L:1/8
Q:1/4=180
M:none
K:A
V:1 treble nm="Soprano" snm="S"
V:2 treble-8 nm="Tenor" snm="T"
V:3 bass nm="Bass" snm="B"
V:1
"^Arnolt Schlick\n(c.1455-c.1521)""^Paul Hofhaimer\n(1459-1537)" E16"^Herzliebstes bild" | E8 A8 | %2
w: Herz-|liebs- tes|
 (G6 A2) B4 (c4- | c4 B2 A2) G8 | A8 z4 F4 | A8 A8 | G8 E4 F4- | F4 (E2 D2) C8 | B,4 D4 E4 F4- | %9
w: bild, * be- weisst|* * * dich|milt, mit|dei- ner|lieb und gunst\_|* gen * mir,|mit dei- ner lieb|
 F2 E2 E8 ^D4 | E16 || E16 | E8 A8 | (G6 A2) B4 (c4- | c4 B2 A2) G8 | A8 z4 F4 | A8 A8 | %17
w: * und gunst- gen|mir.|Des|gleych will|ich * wann ich|* * * han|dich, nach|lust und|
 G8 E4 F4- | F4 (E2 D2) C8 | B,4 D4 E4 F4- | F2 E2 E8 ^D4 | E16- | E16 | E8 z8 | A8 A8 | A8 F8- | %26
w: wünsch meinss hert\-|* zen * gir,|nach lust und wünsch|* meinss hert- zen|gir,|||Er- welt|für all|
 F8 z8 | F8 B8- | B4 A4 G8- | G8 (E6 F2) | (G4 A8 G4) | F8 E8 | B8 G8 | G8 c8- | c4 B4 (A4 G4) | %35
w: |in die\-|* sem tall,|* mit *|rei\- * *|chem schal,|frey ich|mich dein|* in e\- *|
 F8 z8 | F8 B8 | G4 (B6 A2 G4) | F4 (E8 A4- | A4 G4) A8- | A16 |] %41
w: ren,|frey ich|mich dein * *|in e\- *|* * ren.||
V:2
 e16 | c8 f8 | e8 d4 (e4- | e4 d2 c2) B8 | A16 | z8 F8 | B8 c4 d4- | d4 (c2 B2) A8 | B8 G4 A4 | %9
w: Herz-|liebs- tes|bild, be- weisst|* * * dich|milt,|mit|lieb und gunst\_|* gen * mir,|mit dei- ner|
 A2 G2 E4 F8 | E16 || e16 | c8 f8 | e8 d4 (e4- | e4 d2 c2) B8 | A8 x8 | z8 F8 | B8 c4 d4- | %18
w: lieb und gunst- gen|mir.|Des|gleych will|ich wann ich|* * * han|dich,|nach|wünsch meinss hert\-|
 d4 (c2 B2) A8 | B8 G4 A4 | A2 G2 E4 F8 | E16 | z16 | A8 (A6 B2 | A2 G2 A2 G2 F8- | F8 z8 | A8 d8 | %27
w: * zen * gir,|nach lust und|wünsch meinss hert- zen|gir,||Er- welt *|||für all|
 d4 c4 B8- | B8 B8- | B8 z2 c4 ^d2- | d2 e2 f6) (f4 e2- | e2 c2) ^d4 e8 | e8 z8 | e8 c8 | %34
w: in die- sem|* tall,|* mit *|* * * rei\- *|* * chem schal,|frey|ich mich|
 c4 (d2 e2) f8 | f4 e4 d4 c4 | B8 z8 | B8 e8 | d4 (c4 d2 c2) (B2 A2) | B8 A8- | A16 |] %41
w: dein in * e-|ren, frey ich mich|dein,|frey ich|mich dein * * in *|e- ren.||
V:3
 E,8 E,4 (F,2 G,2) | A,6 G,2 F,4 D,4 | (E,4 D,2 C,2) B,,4 (A,,4 | C,4 D,4) E,8 | %4
w: Herz- liebs- tes *|bild, herz- liebs- tes|bild, * * be- weisst|* * dich|
 (A,,4 B,,2 C,2 D,2 C,2) (D,2 E,2) | (D,4 E,4) D,8 | E,8 z4 B,,4 | D,4 E,4 F,8 | B,,8 E,4 D,4- | %9
w: milt, * * * * mit *|dei\- * ner|lieb und|gunst- gen mir,|mit dei- ner|
 D,4 C,4 B,,8 | E,16 || E,8 E,4 (F,2 G,2) | A,6 G,2 F,4 D,4 | (E,4 D,2 C,2) B,,4 (A,,4 | %14
w: * gunst- gen|mir.|Des gleych will *|ich, des gleych will|ich, * * wann ich|
 C,4 D,4) E,8 | (A,,4 B,,2 C,2 D,2 C,2) (D,2 E,2) | (D,4 E,4) D,8 | E,8 z4 B,,4 | D,4 E,4 F,8 | %19
w: * * han|dich, * * * * nach *|lust * und|wünsch meinss|hert- zen gir,|
 B,,8 E,4 D,4- | D,4 C,4 B,,8 | E,16 | C,8 (C,2 B,,2 C,2 D,2 | C,4) B,,4 A,,8- | A,,8 z8 | %25
w: nach lust und|* hert- zen|gir,|Er- welt * * *|* für all,||
 D,8 D,8 | (D,4 C,4) B,,8- | B,,8 z8 | B,,16 | E,4 (F,2 G,2) A,4 (F,4 | E,4 D,4) (D,4 E,4) | %31
w: er- welt|für * all||in|die- sem * tall, mit|* * rei\- *|
 B,,8 E,8 | E,8 E,8- | E,8 A,8 | A,8 F,8- | F,8 A,8- | A,4 G,4 F,4 E,4 | D,8 z4 (E,4 | F,4) (A,12 | %39
w: chem schal,|frey ich|* mich|in e\-|* ren,|* frey ich mich|dein in|* e\-|
 E,8) A,,8- | A,,16 |] %41
w: * ren.||

